dist/assets/img/questions/2/answers/2_1200.svg

<svg width="561" height="272" viewBox="0 0 561 272" fill="none" xmlns="http://www.w3.org/2000/svg">
<g filter="url(#filter0_di_1419_53945)">
<path fill-rule="evenodd" clip-rule="evenodd" d="M86.4494 28C82.3723 28 78.9474 31.0662 78.4981 35.1184L71.5531 97.7589C71.2095 100.857 69.0848 103.44 66.2225 104.674C56.5252 108.856 43.474 117.147 40.0032 129.115C39.9832 129.184 40.0598 129.241 40.1197 129.201C43.9768 126.648 51.2052 121.864 59.9583 119.216C64.7409 117.769 68.8651 122.003 68.3144 126.969L58.9847 211.118C58.4593 215.857 62.1686 220 66.936 220H492.551C496.628 220 500.053 216.934 500.502 212.882L520.015 36.8816C520.541 32.1433 516.831 28 512.064 28H86.4494Z" fill="#FFF0CB"/>
</g>
<defs>
<filter id="filter0_di_1419_53945" x="0" y="0" width="560.064" height="272" filterUnits="userSpaceOnUse" color-interpolation-filters="sRGB">
<feFlood flood-opacity="0" result="BackgroundImageFix"/>
<feColorMatrix in="SourceAlpha" type="matrix" values="0 0 0 0 0 0 0 0 0 0 0 0 0 0 0 0 0 0 127 0" result="hardAlpha"/>
<feOffset dy="12"/>
<feGaussianBlur stdDeviation="20"/>
<feComposite in2="hardAlpha" operator="out"/>
<feColorMatrix type="matrix" values="0 0 0 0 1 0 0 0 0 1 0 0 0 0 1 0 0 0 1 0"/>
<feBlend mode="normal" in2="BackgroundImageFix" result="effect1_dropShadow_1419_53945"/>
<feBlend mode="normal" in="SourceGraphic" in2="effect1_dropShadow_1419_53945" result="shape"/>
<feColorMatrix in="SourceAlpha" type="matrix" values="0 0 0 0 0 0 0 0 0 0 0 0 0 0 0 0 0 0 127 0" result="hardAlpha"/>
<feOffset dy="-4"/>
<feGaussianBlur stdDeviation="4"/>
<feComposite in2="hardAlpha" operator="arithmetic" k2="-1" k3="1"/>
<feColorMatrix type="matrix" values="0 0 0 0 0.883659 0 0 0 0 0.635314 0 0 0 0 0.0558422 0 0 0 0.4 0"/>
<feBlend mode="normal" in2="shape" result="effect2_innerShadow_1419_53945"/>
</filter>
</defs>
</svg>

<svg width="561" height="272" viewBox="0 0 561 272" fill="none" xmlns="http://www.w3.org/2000/svg"><g filter="url(#filter0_di_1419_53945)"><path fill-rule="evenodd" clip-rule="evenodd" d="M86.45 28a8 8 0 00-7.952 7.118l-6.945 62.64c-.343 3.099-2.468 5.682-5.33 6.916-9.698 4.182-22.749 12.473-26.22 24.441a.077.077 0 00.117.086c3.857-2.553 11.085-7.337 19.838-9.985 4.783-1.447 8.907 2.787 8.356 7.753l-9.33 84.149C58.46 215.857 62.17 220 66.937 220h425.615a8 8 0 007.951-7.118l19.513-176c.526-4.739-3.184-8.882-7.951-8.882H86.449z" fill="#FFF0CB"/></g><defs><filter id="filter0_di_1419_53945" x="0" y="0" width="560.064" height="272" filterUnits="userSpaceOnUse" color-interpolation-filters="sRGB"><feFlood flood-opacity="0" result="BackgroundImageFix"/><feColorMatrix in="SourceAlpha" values="0 0 0 0 0 0 0 0 0 0 0 0 0 0 0 0 0 0 127 0" result="hardAlpha"/><feOffset dy="12"/><feGaussianBlur stdDeviation="20"/><feComposite in2="hardAlpha" operator="out"/><feColorMatrix values="0 0 0 0 1 0 0 0 0 1 0 0 0 0 1 0 0 0 1 0"/><feBlend in2="BackgroundImageFix" result="effect1_dropShadow_1419_53945"/><feBlend in="SourceGraphic" in2="effect1_dropShadow_1419_53945" result="shape"/><feColorMatrix in="SourceAlpha" values="0 0 0 0 0 0 0 0 0 0 0 0 0 0 0 0 0 0 127 0" result="hardAlpha"/><feOffset dy="-4"/><feGaussianBlur stdDeviation="4"/><feComposite in2="hardAlpha" operator="arithmetic" k2="-1" k3="1"/><feColorMatrix values="0 0 0 0 0.883659 0 0 0 0 0.635314 0 0 0 0 0.0558422 0 0 0 0.4 0"/><feBlend in2="shape" result="effect2_innerShadow_1419_53945"/></filter></defs></svg>
